X: 37562
T: Smash The Windows
R: reel
M: 4/4
K: Dmajor
|:D2(3FED FAAB|defa ecAF|GE{G}E2 FEDF|EA,~A,2 CDEC|
D2(3FED FAAB|defa ecAe|fd~d2 gece|1 fage fdAF:|2 fage d2ef||
|:afdf ~g3a|bagb afdf|~g3A (3Bcd ef|gfgb agfe|
faeg fdde|fdaf gfeg|fd(3ddd gece|1 fage d2ef:|2 fage fdAF||

